packages/ffe-icons/icons/open/400/sm/legend_toggle.svg

<svg xmlns="http://www.w3.org/2000/svg" height="20" viewBox="0 -960 960 960" width="20"><path d="M227.981-312h503.727Q747-312 757.5-301.711q10.5 10.29 10.5 25.5Q768-261 757.656-250.5 747.311-240 732.019-240H228.292Q213-240 202.5-250.289q-10.5-10.29-10.5-25.5Q192-291 202.344-301.5q10.345-10.5 25.637-10.5Zm0-144h503.727Q747-456 757.5-445.711q10.5 10.29 10.5 25.5Q768-405 757.656-394.5 747.311-384 732.019-384H228.292Q213-384 202.5-394.289q-10.5-10.29-10.5-25.5Q192-435 202.344-445.5q10.345-10.5 25.637-10.5Zm-18.905-165.554L367-719q19-11 41-10.5t39 13.5l141 100 123.911-88.261Q730-717 749-707t19 32.143q0 8.857-4.037 16.99-4.037 8.134-11.214 12.652L629.84-557.556Q611-544 588.113-544q-22.888 0-42.113-14L405-658l-158.939 97.109Q228-550 210-560.5T192-592q0-9.167 4.5-17.083 4.5-7.917 12.576-12.471Z"/></svg>

<svg xmlns="http://www.w3.org/2000/svg" height="20" viewBox="0 -960 960 960" width="20"><path d="M227.98-312h503.73q15.29 0 25.79 10.29t10.5 25.5q0 15.21-10.34 25.71-10.35 10.5-25.64 10.5H228.29q-15.29 0-25.79-10.29t-10.5-25.5q0-15.21 10.34-25.71 10.35-10.5 25.64-10.5Zm0-144h503.73q15.29 0 25.79 10.29t10.5 25.5q0 15.21-10.34 25.71-10.35 10.5-25.64 10.5H228.29q-15.29 0-25.79-10.29t-10.5-25.5q0-15.21 10.34-25.71 10.35-10.5 25.64-10.5Zm-18.9-165.55L367-719q19-11 41-10.5t39 13.5l141 100 123.91-88.26Q730-717 749-707q19 10 19 32.14 0 8.86-4.04 16.99-4.03 8.14-11.21 12.66l-122.91 87.65Q611-544 588.11-544q-22.88 0-42.11-14L405-658l-158.94 97.11Q228-550 210-560.5 192-571 192-592q0-9.17 4.5-17.08 4.5-7.92 12.58-12.47Z"/></svg>
